images/button-images/sc2_A.svg

<?xml version='1.0' encoding='utf-8'?>
<svg xmlns="http://www.w3.org/2000/svg" viewBox="0 0 52.0265 46.6044" width="52.0265" height="46.6044"><g id="glyph"><g id="button"><g transform="scale(0.5) translate(-1103.84,-307.455)"><path d="M 1153.0905 308.0812 C 1145.4648 308.4800 1142.6413 309.1126 1137.2701 311.6261 C 1113.0380 322.9657 1103.8446 351.7919 1116.7428 375.9914 C 1122.0334 385.9177 1132.6312 394.3033 1143.6159 397.2551 C 1156.2991 400.6634 1170.2048 398.3018 1181.3717 390.8449 C 1207.3391 373.5045 1207.8975 335.0657 1182.4537 316.3351 C 1173.6795 309.8759 1165.0677 307.4547 1153.0905 308.0812 Z M 1155.3326 312.8722 C 1165.6802 312.7050 1176.2357 316.6156 1184.4694 325.3215 C 1203.9417 345.9106 1197.6857 378.2065 1171.8580 390.4250 C 1164.2360 394.0308 1151.5534 394.8064 1144.0787 392.1242 C 1123.2726 384.6580 1112.3756 365.4078 1117.0534 344.3820 C 1121.4193 324.7579 1138.0866 313.1509 1155.3326 312.8722 Z M 1156.0924 329.8566 C 1154.8521 329.8566 1153.3896 330.4191 1152.8444 331.1066 C 1152.2993 331.7941 1149.3547 338.8816 1146.2994 346.8566 C 1143.2440 354.8316 1139.8260 363.4941 1138.7037 366.1066 L 1136.6627 370.8566 L 1140.4205 370.8566 C 1143.9321 370.8566 1144.2796 370.5782 1145.7252 366.6066 L 1147.2721 362.3566 L 1155.8151 362.0695 C 1164.1885 361.7880 1164.3678 361.8326 1164.9811 364.2765 C 1165.3253 365.6477 1165.9992 367.8014 1166.4791 369.0636 C 1167.1680 370.8755 1168.0612 371.3313 1170.7213 371.2258 C 1172.5745 371.1528 1173.9860 370.6125 1173.8580 370.0265 C 1173.2413 367.2032 1160.1614 332.1982 1159.3151 331.1066 C 1158.7822 330.4191 1157.3327 329.8566 1156.0924 329.8566 Z M 1156.4108 340.3722 C 1156.4288 340.3722 1156.4438 340.3722 1156.4578 340.3902 C 1157.5020 341.4344 1161.4227 354.3174 1160.9364 355.1070 C 1160.2602 356.2051 1150.5926 356.0263 1150.5926 354.9156 C 1150.5926 352.9625 1155.6385 340.4234 1156.4110 340.3726 Z" style="fill:#000000" /></g></g></g></svg>

<svg xmlns="http://www.w3.org/2000/svg" width="52.026" height="46.604" viewBox="0 0 52.026 46.604"><g id="glyph"><g id="button"><g transform="scale(0.5) translate(-1103.84,-307.455)"><path d="M1153.09 308.081c-7.625.399-10.449 1.032-15.82 3.545-24.232 11.34-33.425 40.166-20.527 64.365 5.29 9.927 15.888 18.312 26.873 21.264 12.683 3.408 26.589 1.047 37.756-6.41 25.967-17.34 26.525-55.78 1.082-74.51-8.774-6.46-17.386-8.88-29.363-8.254m2.243 4.791c10.347-.167 20.903 3.744 29.136 12.45 19.473 20.589 13.217 52.885-12.611 65.103-7.622 3.606-20.305 4.381-27.78 1.7-20.805-7.467-31.702-26.717-27.025-47.743 4.366-19.624 21.034-31.231 38.28-31.51m.76 16.985c-1.24 0-2.703.562-3.249 1.25-.545.687-3.49 7.775-6.545 15.75s-6.473 16.637-7.595 19.25l-2.041 4.75h3.757c3.512 0 3.86-.279 5.305-4.25l1.547-4.25 8.543-.288c8.373-.281 8.553-.236 9.166 2.207a52 52 0 0 0 1.498 4.788c.689 1.811 1.582 2.267 4.242 2.162 1.853-.073 3.265-.613 3.137-1.2-.617-2.823-13.697-37.828-14.543-38.92-.533-.687-1.982-1.25-3.223-1.25m.318 10.515c.018 0 .033 0 .047.018 1.044 1.044 4.965 13.927 4.478 14.717-.676 1.098-10.343.92-10.343-.191 0-1.954 5.045-14.493 5.818-14.543Z" style="fill:#000"/></g></g></g></svg>
